X: 1
T:La Russe
% Nottingham Music Database
S:Kevin Briggs, via EF
B:Kennedy
M:4/4
L:1/4
K:G
|: B/A/ \
| "G"GB/B/ Bd/d/ | "G"dg gf/g/ | "C"ag ec | "Am"ed/e/ "D7"d/c/B/A/ \
| "G"GB/B/ Bd/d/ | "G"dg gf/g/ | "C"ed "D7"dF/G/ | "G"AG G :| [K:D]
|: A \
| "D"Ad/d/ dc/B/ | "D"Aa/a/ ag/f/ | "A7"gf ge | "D"f/g/a/g/ "A7"fd \
| "D"Ad/d/ dc/B/ | "D"Aa/a/ ag/f/ | "A7"gf ge |1 "D"d3 :|
|2 "D"dd/e/ "D7"d/=c/B/A/ |]
